X:17
T:Tourdion
T:Quand je bois du vin clairet
R:misc
H:Published by Pierre Attaingnant (France) in 1530.
H:Angelo Branduardi used this tune (in 6/8) for his song "Donna ti voglio cantare"
H:Blackmore's Night used this tune for their song "Play Minstrel Play"
Z:id:hn-misc-17
M:3/4
L:1/8
K:Em
EFGAGF | E3FGA | BAGGAF | G2FED2 | EFGAGF | E2G2F2 | E4D2 | E6 :|
|: B3ABc | B4B2 | dcBAGF | G3FE2 | B3ABc | B2AGF2 | E4D2 | E6 :|

